tools/download-figma-icons/icons/outlined-medium/wallbe-pro.svg

<svg width="24" height="24" viewBox="0 0 24 24" fill="none" xmlns="http://www.w3.org/2000/svg">
<path fill-rule="evenodd" clip-rule="evenodd" d="M21 22.5C21.8272 22.5 22.5 21.8272 22.5 21V3C22.5 2.17275 21.8272 1.5 21 1.5H3C2.17275 1.5 1.5 2.17275 1.5 3V21C1.5 21.8272 2.17275 22.5 3 22.5H21ZM3 0H21C22.6545 0 24 1.3455 24 3V21C24 22.6545 22.6545 24 21 24H3C1.3455 24 0 22.6545 0 21V3C0 1.3455 1.3455 0 3 0ZM9.75 10.125C9.75 9.08925 10.5892 8.25 11.625 8.25C12.6607 8.25 13.5 9.08925 13.5 10.125C13.5 11.1607 12.6607 12 11.625 12C10.5892 12 9.75 11.1607 9.75 10.125ZM17.625 14.25C17.004 14.25 16.5 14.754 16.5 15.375C16.5 15.996 17.004 16.5 17.625 16.5C18.246 16.5 18.75 15.996 18.75 15.375C18.75 14.754 18.246 14.25 17.625 14.25ZM15.429 16.8135C15.9165 17.5568 16.7362 18 17.625 18C19.0725 18 20.25 16.8225 20.25 15.375C20.25 14.334 19.5945 13.4767 18.4958 13.08C15.6472 12.2078 14.7735 9.28425 14.658 8.84925C14.1622 7.53375 13.0312 6.75 11.625 6.75C10.7355 6.75 9.89625 7.09275 9.26175 7.716C7.827 9.04575 6.29175 9.018 5.46675 9.003L5.25 9C4.17075 9 3.75 9.42075 3.75 10.5C3.75825 10.6073 3.86925 11.25 5.25 11.25C7.55831 11.25 8.41938 11.9463 9.1791 12.5607L9.18225 12.5632L9.18393 12.5646C9.74564 13.0192 10.1906 13.3794 11.3317 13.5045C13.6185 13.7557 14.16 14.6723 15.0562 16.1895C15.0757 16.2222 15.0953 16.2553 15.1151 16.2889C15.2127 16.4537 15.3162 16.6284 15.429 16.8135ZM16.1047 8.451C16.11 8.4735 16.7512 10.9777 18.9697 11.658C20.6978 12.279 21.75 13.6995 21.75 15.375C21.75 17.649 19.899 19.5 17.625 19.5C16.224 19.5 14.931 18.798 14.1667 17.6227L14.1547 17.6055C14.013 17.3715 13.884 17.1548 13.7655 16.953L13.7647 16.9517C12.9321 15.5435 12.7083 15.1649 11.1683 14.9955C9.58773 14.8223 8.87069 14.2414 8.23858 13.7292L8.238 13.7288C7.58925 13.203 7.02975 12.75 5.25 12.75C2.877 12.75 2.25 11.2785 2.25 10.5C2.25 8.5935 3.3435 7.5 5.25 7.5L5.49375 7.503L5.49865 7.50308C6.23922 7.51583 7.25165 7.53326 8.22675 6.63075C9.12825 5.74575 10.3403 5.25 11.625 5.25C13.6687 5.25 15.375 6.44475 16.0793 8.367L16.1047 8.451Z" fill="black"/>
</svg>

<svg xmlns="http://www.w3.org/2000/svg" width="24" height="24" fill="none" viewBox="0 0 24 24"><path fill="currentColor" fill-rule="evenodd" d="M21 22.5c.827 0 1.5-.673 1.5-1.5V3c0-.827-.673-1.5-1.5-1.5H3c-.827 0-1.5.673-1.5 1.5v18c0 .827.673 1.5 1.5 1.5zM3 0h18c1.654 0 3 1.346 3 3v18c0 1.654-1.346 3-3 3H3c-1.654 0-3-1.346-3-3V3c0-1.654 1.346-3 3-3m6.75 10.125a1.875 1.875 0 1 1 3.75 0 1.875 1.875 0 0 1-3.75 0m7.875 4.125a1.125 1.125 0 1 0 0 2.25 1.125 1.125 0 0 0 0-2.25m-2.196 2.564A2.62 2.62 0 0 0 17.625 18a2.63 2.63 0 0 0 2.625-2.625c0-1.041-.655-1.898-1.754-2.295-2.849-.872-3.722-3.796-3.838-4.23-.496-1.316-1.627-2.1-3.033-2.1-.89 0-1.729.343-2.363.966-1.435 1.33-2.97 1.302-3.795 1.287L5.25 9c-1.08 0-1.5.42-1.5 1.5.008.107.12.75 1.5.75 2.308 0 3.17.696 3.93 1.31l.002.003.002.002c.562.454 1.007.814 2.148.94 2.286.25 2.828 1.167 3.724 2.684l.06.1q.144.248.313.524m.676-8.363c.005.022.646 2.527 2.865 3.207 1.728.621 2.78 2.042 2.78 3.717a4.13 4.13 0 0 1-4.125 4.125 4.11 4.11 0 0 1-3.458-1.877l-.012-.018q-.212-.35-.39-.652v-.001c-.833-1.409-1.057-1.787-2.597-1.957-1.58-.173-2.297-.754-2.93-1.266-.649-.526-1.208-.979-2.988-.979-2.373 0-3-1.472-3-2.25 0-1.906 1.094-3 3-3l.244.003h.005c.74.013 1.753.03 2.728-.872a4.83 4.83 0 0 1 3.398-1.381c2.044 0 3.75 1.195 4.454 3.117z" clip-rule="evenodd"/></svg>
